icons/outline/border-bottom-plus.svg

<!--
category: Design
tags: [add, bottom, increase, augment, expand, enclose, edge, underline, extend, boost]
unicode: "fdbd"
version: "3.0"
-->
<svg
  xmlns="http://www.w3.org/2000/svg"
  width="24"
  height="24"
  viewBox="0 0 24 24"
  fill="none"
  stroke="currentColor"
  stroke-width="2"
  stroke-linecap="round"
  stroke-linejoin="round"
>
  <path d="M4 20h16m-16 -4v-.01m16 .01v-.01m-16 -3.99v-.01m16 .01v-.01m-16 -3.99v-.01m16 .01v-.01m-16 -3.99v-.01m4 .01v-.01m4 .01v-.01m4 .01v-.01m4 .01v-.01m-5 8.01h-6m3 -3v6" />
</svg>

<!--
category: Design
tags: [add, bottom, increase, augment, expand, enclose, edge, underline, extend, boost]
unicode: "fdbd"
version: "3.0"
-->
<svg
  xmlns="http://www.w3.org/2000/svg"
  width="24"
  height="24"
  viewBox="0 0 24 24"
  fill="none"
  stroke="currentColor"
  stroke-width="2"
  stroke-linecap="round"
  stroke-linejoin="round"
>
    <path d="M4 20h16M4 16v-.01M20 16v-.01M4 12v-.01M20 12v-.01M4 8v-.01M20 8v-.01M4 4v-.01M8 4v-.01M12 4v-.01M16 4v-.01M20 4v-.01M15 12h-6M12 9v6" />
</svg>
